X:1
T:San Luis Obispo, 76.76 D
T:San Luis Obispo, 76.76 D
T:John Wesley Dennis, 1918
T:Public Domain Courtesy of the Cyber Hymnal™
C:John Wesley Dennis, 1918
Z:Public Domain
Z:Courtesy of the Cyber Hymnal™
%%score ( 1 2 ) 3
L:1/8
Q:1/4=100
M:4/4
K:F
V:1 treble 
V:2 treble 
V:3 bass 
V:1
 FAG | (z D2) [EG]2 x4 | [FA] [CF]4 FFG | (z F2) [FG]2 x4 | [EG]4- [EG]GAG | (z CCC F2) [EG]2 | %6
 [FA] [FA]4 FAA | (z F2) [CG]2 x4 | [CF]4- [CF]cde | (z [Fc]2) x8 | [Fd] [Fc]4 FFG | x8 | %12
 (z F2) [F=B]2 x4 | [Ec]4- [Ec] | cde | (z A2) [Fc]2 x4 | [Fd] [Fc]4 FFG | (z F2) [CG]2 x4 | %18
 [CF]4- [CF] |] %19
V:2
 x3 | F6 CCC | x8 | A6 FFG | x8 | F6 x2 | x8 | A6 FFF | x8 | (f6 AAA A2) | x8 | x8 | A6 FFG | x5 | %14
 x3 | f6 AAA | x8 | A6 FFF | x5 |] %19
V:3
 z3 | z ([F,A,][F,A,][F,A,] [D,A,]2) [C,C]2 x | [F,C] [F,A,]4 z3 | %3
 z ([F,C][F,C][E,^C] [D,D]2) [G,=B,]2 x | [C,C]4- [C,C] z3 | %5
 z ([F,A,][F,A,][F,A,] [A,,C]2) [C,C]2 | [F,C] [F,C]4 z3 | z ([F,C][F,C][F,C] [C,C]2) [C,B,]2 x | %8
 [F,A,]4- [F,A,] z3 | z ([F,C][F,C][F,C] [F,C]2) [F,A,]2 x3 | [F,B,] [F,A,]4 z3 | x8 | %12
 z ([F,C][F,C][E,^C] [D,D]2) [G,D]2 x | [C,C]4- [C,C] | z3 | z ([F,C][F,C][F,C] [F,C]2) [F,A,]2 x | %16
 [F,B,] [F,A,]4 z3 | z ([F,C][F,C][F,C] [C,C]2) [C,B,]2 x | [F,A,]4- [F,A,] |] %19

